X:803
T:Dhu Hill, The
S:West End Session, Edinburgh Sept 2005
B:Kerr's Merry Melodies Bk.4
Z:Nigel Gatherer
M:6/8
L:1/8
K:F#m
F2A cdc | BAG Bcd | c2c fed | cBc F3  :|
cBc ABc | dcd B3  | cBc f2f | cAF F3  :|
f2d dcB | ABG FGA | B2B cBc | dcB ABG :|
<end>
<start>
